X:1
T:Cowboy Jig, The
R:Jig
%%printtempo 0
Q:150
M:6/8
L:1/8
K:A
"A"AEF A2 B|"A7"cag aec|"D"Bcd cAB|"E"cdc BGE|
"A"AEF A2 B|"A7"cag aec|"D"Bcd "Bm"c2B|1 "E"cAG "A"A2B:|2 "E"cAG "A"Ace|:
"D"[f3A3] f2d| fag fec| "A"[e3A3] e2e|eaf ecA|
"Bm"d2e f2e| fac B2f|"A"ecA "E"c2B|1 "A"cAA Ace:|2 "A"cAA A2B|]
